assets/images/menu-hamburger.svg

<svg width="77" height="55" viewBox="0 0 77 55" fill="none" xmlns="http://www.w3.org/2000/svg">
<path d="M3.1724 30.6733H72.9804C74.732 30.6733 76.1535 29.2518 76.1535 27.5002C76.1535 25.7487 74.732 24.3271 72.9804 24.3271H3.1724C1.42085 24.3271 -0.000688553 25.7487 -0.000688553 27.5002C-0.000688553 29.2518 1.42085 30.6733 3.1724 30.6733Z" fill="white"/>
<path d="M3.17318 6.34618H72.9812C74.7328 6.34618 76.1543 4.92465 76.1543 3.17309C76.1543 1.42154 74.7328 0 72.9812 0H3.17318C1.42162 0 8.58307e-05 1.42154 8.58307e-05 3.17309C8.58307e-05 4.92465 1.42162 6.34618 3.17318 6.34618Z" fill="white"/>
<path d="M3.1724 55H72.9804C74.732 55 76.1535 53.5785 76.1535 51.8269C76.1535 50.0753 74.732 48.6538 72.9804 48.6538H3.1724C1.42085 48.6538 -0.000688553 50.0753 -0.000688553 51.8269C-0.000688553 53.5785 1.42085 55 3.1724 55Z" fill="white"/>
</svg>

<svg xmlns="http://www.w3.org/2000/svg" width="77" height="55" fill="#fff" xmlns:v="https://vecta.io/nano"><path d="M3.172 30.673H72.98c1.752 0 3.173-1.422 3.173-3.173s-1.421-3.173-3.173-3.173H3.172c-1.752 0-3.173 1.422-3.173 3.173s1.422 3.173 3.173 3.173zm.001-24.327h69.808c1.752 0 3.173-1.422 3.173-3.173S74.733 0 72.981 0H3.173C1.422 0 0 1.422 0 3.173s1.422 3.173 3.173 3.173zM3.172 55H72.98c1.752 0 3.173-1.422 3.173-3.173s-1.421-3.173-3.173-3.173H3.172c-1.752 0-3.173 1.422-3.173 3.173S1.421 55 3.172 55z"/></svg>
